build/img/daichi-logo-black.svg

<svg width="96" height="32" viewBox="0 0 96 32" fill="none" xmlns="http://www.w3.org/2000/svg">
<path d="M60.3734 7.52499C58.9975 7.96982 58.1082 8.56863 57.0343 9.69781C55.9436 10.8783 55.3059 12.1444 54.9536 13.7868C54.2488 17.1744 55.1214 20.4421 57.2859 22.5636C59.1149 24.3601 60.6251 24.8904 63.5783 24.7878C65.3402 24.7193 65.6423 24.668 66.6658 24.189C67.9411 23.5731 69.4512 22.2044 70.0889 21.0923C70.5084 20.3737 71.146 18.526 71.146 18.0469C71.146 17.8587 70.7768 17.8074 69.3506 17.8074H67.5384L67.2195 18.6115C66.4812 20.4421 65.1389 21.2976 63.0078 21.2976C61.5144 21.2976 60.8936 21.0581 59.9371 20.1342C59.1653 19.3985 58.7626 18.5602 58.5276 17.1401C58.0746 14.4712 59.0814 12.093 61.0782 11.0323C61.8333 10.6217 64.0817 10.6046 64.9543 10.9981C65.9107 11.4258 66.7161 12.2641 67.1356 13.2736L67.5384 14.2145H69.3506C69.4542 14.2145 69.5524 14.2148 69.6454 14.215C70.5238 14.2169 70.9343 14.2178 71.0663 14.0228C71.1821 13.8517 71.0835 13.5296 70.8983 12.9251C70.8758 12.8516 70.852 12.7739 70.8272 12.6919C70.3909 11.2718 69.8204 10.3479 68.7633 9.30431C67.1356 7.7474 65.6422 7.19992 63.0078 7.21703C61.8668 7.21703 61.0278 7.31968 60.3734 7.52499Z" fill="black"/>
<path fill-rule="evenodd" clip-rule="evenodd" d="M2.71831 7.73032C0.889325 8.6542 0 10.1769 0 12.4181C0 14.0264 0.419493 15.1556 1.4095 16.1479C2.34916 17.1231 3.25526 17.5166 4.7151 17.6021C6.54409 17.7048 7.53409 17.3455 8.74223 16.1136C9.83291 15.0016 10.2356 13.9922 10.2356 12.4181C10.2356 10.981 9.84969 9.93736 8.92681 8.89372C7.83613 7.64478 6.82934 7.19995 5.10103 7.19995C3.92645 7.19995 3.60764 7.26839 2.71831 7.73032ZM6.59443 11.135C7.1146 11.7338 7.1985 12.5721 6.79578 13.3591C6.44341 14.0606 5.90646 14.3857 5.10103 14.3857C3.74188 14.3857 2.75187 12.9827 3.23848 11.7851C3.87611 10.2624 5.52053 9.93736 6.59443 11.135Z" fill="black"/>
<path fill-rule="evenodd" clip-rule="evenodd" d="M13.256 24.6851V7.3368L17.5012 7.40523C21.327 7.47367 21.8304 7.525 22.7365 7.86717C26.2435 9.16744 28.408 12.2641 28.408 16.011C28.408 19.8091 26.2267 22.8887 22.6526 24.1548C21.6626 24.514 21.1928 24.5483 17.4173 24.6167L13.256 24.6851ZM24.4984 14.129C23.995 12.7432 22.7029 11.4429 21.4612 11.0665C20.8907 10.8954 19.9175 10.7928 18.7597 10.7928H16.9475V21.2634L19.0953 21.1949C21.0082 21.1436 21.3102 21.0923 22.0821 20.6817C24.3474 19.4841 25.4045 16.6098 24.4984 14.129Z" fill="black"/>
<path fill-rule="evenodd" clip-rule="evenodd" d="M34.583 7.74744C33.8615 9.8005 29.0289 24.3088 29.0289 24.4628C29.0289 24.5996 29.5323 24.651 30.9083 24.6167L32.7708 24.5654L33.3581 22.8032L33.9286 21.0581H40.8754L42.0164 24.651H43.9125C44.9529 24.651 45.8086 24.6167 45.8086 24.5825C45.8086 24.497 40.372 8.14094 40.1874 7.6619C40.0868 7.40526 39.7847 7.37105 37.402 7.37105C34.7844 7.37105 34.7173 7.37105 34.583 7.74744ZM38.7276 14.3343L39.9022 17.9785H37.3852C35.4388 17.9785 34.8851 17.9272 34.9522 17.7561L36.1771 14.0093C36.8147 12.0589 37.3684 10.5191 37.4356 10.5875C37.5027 10.6559 38.0732 12.3497 38.7276 14.3343Z" fill="black"/>
<path d="M48.3256 24.651V7.37105H51.8493V24.651H48.3256Z" fill="black"/>
<path d="M73.8307 24.651H77.5223V17.4652H84.7375V24.651H88.4291V7.37105H84.7375V14.3857H77.5223V7.37105H73.8307V24.651Z" fill="black"/>
<path d="M91.9528 24.651V7.37105H95.4766V24.651H91.9528Z" fill="black"/>
</svg>

<svg width="96" height="32" viewBox="0 0 96 32" fill="none" xmlns="http://www.w3.org/2000/svg"><path d="M60.373 7.525c-1.375.445-2.265 1.044-3.339 2.173-1.09 1.18-1.728 2.446-2.08 4.089-.705 3.387.167 6.655 2.332 8.777 1.829 1.796 3.34 2.326 6.292 2.224 1.762-.069 2.064-.12 3.088-.599 1.275-.616 2.785-1.985 3.423-3.097.42-.718 1.057-2.566 1.057-3.045 0-.188-.37-.24-1.795-.24h-1.813l-.319.805c-.738 1.83-2.08 2.686-4.211 2.686-1.494 0-2.114-.24-3.07-1.164-.773-.736-1.175-1.574-1.41-2.994-.453-2.669.553-5.047 2.55-6.108.755-.41 3.004-.427 3.876-.034.957.428 1.762 1.266 2.182 2.276l.402.94h1.813l.294.001c.879.002 1.29.003 1.421-.192.116-.171.017-.493-.168-1.098l-.07-.233c-.437-1.42-1.008-2.344-2.065-3.388-1.627-1.557-3.12-2.104-5.755-2.087-1.141 0-1.98.103-2.635.308z" fill="#000"/><path fill-rule="evenodd" clip-rule="evenodd" d="M2.718 7.73C.89 8.654 0 10.177 0 12.418c0 1.608.42 2.738 1.41 3.73.94.975 1.845 1.369 3.305 1.454 1.83.103 2.82-.256 4.027-1.488 1.09-1.112 1.494-2.122 1.494-3.696 0-1.437-.386-2.48-1.31-3.524C7.837 7.644 6.83 7.2 5.102 7.2c-1.175 0-1.493.068-2.383.53zm3.876 3.405c.52.599.604 1.437.202 2.224-.353.702-.89 1.027-1.695 1.027-1.36 0-2.35-1.403-1.863-2.6.638-1.524 2.283-1.849 3.356-.651zm6.662 13.55V7.337l4.245.068c3.826.069 4.33.12 5.235.462 3.508 1.3 5.672 4.397 5.672 8.144 0 3.798-2.181 6.878-5.755 8.144-.99.359-1.46.393-5.236.462l-4.161.068zM24.498 14.13c-.503-1.386-1.795-2.686-3.037-3.063-.57-.17-1.543-.273-2.701-.273h-1.813v10.47l2.148-.068c1.913-.051 2.215-.103 2.987-.513 2.265-1.198 3.322-4.072 2.416-6.553zm10.085-6.383c-.721 2.053-5.554 16.562-5.554 16.716 0 .137.503.188 1.88.154l1.862-.052.587-1.762.57-1.745h6.947l1.141 3.593h1.897c1.04 0 1.896-.034 1.896-.069 0-.085-5.437-16.441-5.622-16.92-.1-.257-.402-.29-2.785-.29-2.618 0-2.685 0-2.819.375zm4.145 6.587l1.174 3.645h-2.517c-1.946 0-2.5-.052-2.433-.223l1.225-3.747c.638-1.95 1.191-3.49 1.259-3.421.067.068.637 1.762 1.292 3.746z" fill="#000"/><path d="M48.326 24.651V7.371h3.523v17.28h-3.523zm25.504 0h3.692v-7.186h7.215v7.186h3.692V7.371h-3.692v7.015h-7.215V7.37h-3.691v17.28zm18.123 0V7.371h3.524v17.28h-3.524z" fill="#000"/></svg>
